!!!!SEGMENT: Ser1002a-Missa_Novem_lectionum-Kyrie.krn
!!!id: Ser1002a
!!!OTL: Kyrie
!!!AGN: Mass; Kyrie
!!!voices: 4
!!!COM: Claudin de Sermisy
!!!OPR: Missa Novem lectionum
**kern	**kern	**kern	**kern
*part4	*part3	*part2	*part1
*staff4	*staff3	*staff2	*staff1
*I"Bassus	*I"Tenor	*I"Altus	*I"Superius
*I'B	*I'T	*I'A	*I'S
*clefF4	*clefGv2	*clefGv2	*clefG2
*k[]	*k[]	*k[]	*k[]
*M3/1	*M3/1	*M3/1	*M3/1
*met(O)	*met(O)	*met(O)	*met(O)
!!section: Kyrie I
!!!OMD: Kyrie I
=1	=1	=1	=1
!	!	!	!LO:TX:a:t=Cantus firmus = Kyrie XI "Orbis factor"
0.r	0.r	2.A	1r
.	.	4B	.
.	.	2c	0a
.	.	1d	.
.	.	2c	.
=2	=2	=2	=2
0r	0.r	2d	1b
.	.	2e	.
.	.	2f	0a
.	.	2d	.
2.AA	.	2f	.
.	.	[2e	.
4BB	.	.	.
=3	=3	=3	=3
2C	1r	2e]	2g
1D	.	2d	2.f
.	1A	1e	.
.	.	.	4e
2C	.	.	1a
2D	1B	1r	.
2E	.	.	2g#i
=4	=4	=4	=4
1.F	0A	2.A	1a
.	.	4B	.
.	.	2c	2r
2D	.	1d	2f
1E	1G	.	2.g
.	.	2c	.
.	.	.	4a
=5	=5	=5	=5
1r	1G	2d	1b-i
.	.	2e	.
2.D	1A	1.f	1a
4E	.	.	.
2F	[1D	.	1r
[2G	.	2d	.
=6	=6	=6	=6
2G]	1D]	0e	1a
2F	.	.	.
2G	0r	.	2b
2A	.	.	1a
1B-i	.	1d	.
.	.	.	2g
=7	=7	=7	=7
1A	2r	2c	1a
.	2D	2d	.
0r	2F	2A	1d
.	2G	2B	.
.	2A	2c	2f
.	2B	2d	2g
=8	=8	=8	=8
0.r	2A	2c	2a
.	1G	2.d	1b-i
.	.	4B	.
.	2F	4c	2a
.	.	4d	.
.	4E	2G	4g
.	4D	.	4f
.	[2d	2B	4e
.	.	.	4d
=9	=9	=9	=9
1r	4d]	0A	1e
.	4c	.	.
.	1c	.	.
2.AA	.	.	1.e
.	4B	.	.
4BB	4A	.	.
2C	2G	2r	.
[2D	2F	2A	2f
=10	=10	=10	=10
2D]	2E	2B	2g
2C	1A	2c	2e
2D	.	2A	2f
2E	2G	1.c	2g
2F	2A	.	2f
2C	2G	.	2e
=11	=11	=11	=11
2D	2F	2A	2d
2GG	2G	2B	2.e
2AA	2F	2A	.
.	.	.	4d
2BB	2D	2G	1e
1AA	1E	1A	.
.	.	.	2c#i
=12	=12	=12	=12
0.Dl	0.Dl	0.Al	0.dl
=13||	=13||	=13||	=13||
*M2/1	*M2/1	*M2/1	*M2/1
*met(C|)	*met(C|)	*met(C|)	*met(C|)
!!section: Christe
!!!OMD: Christe
0r	0r	0r	1d
.	.	.	1g
=14	=14	=14	=14
1r	0r	2r	2f
.	.	1A	2e
1D	.	.	3.f
.	.	[2d	6e
.	.	.	3f
=15	=15	=15	=15
1A	0r	2d]	2.e
.	.	2c	.
.	.	.	4f
2G	.	2d	1g
2E	.	2e	.
=16	=16	=16	=16
2F	2r	2c	0a
2D	1A	2.d	.
1F	.	.	.
.	.	4c	.
.	[2d	2A	.
=17	=17	=17	=17
2E	2d]	2.e	0r
2A	2c	.	.
.	.	8dL	.
.	.	8cJ	.
2G	2d	4B	.
.	.	4A	.
2E	2e	2B	.
=18	=18	=18	=18
2F	2c	0A	1r
4D	1d	.	.
4E	.	.	.
4F	.	.	1a
4G	.	.	.
[2A	2c	.	.
=19	=19	=19	=19
2A]	1B	1r	1.dd
2G	.	.	.
1A	2r	1e	.
.	[2A	.	2cc
=20	=20	=20	=20
1D	2A]	1.f	2.dd
.	1d	.	.
.	.	.	4cc
1r	.	.	2a
.	2c	2e	2cc
=21	=21	=21	=21
2r	1d	1f	2b
1D	.	.	1a
.	1B	[1d	.
[2G	.	.	2g#i
=22	=22	=22	=22
2G]	1A	1d]	1a
2F	.	.	.
2.G	1r	2r	1b
.	.	[2d	.
4F	.	.	.
=23	=23	=23	=23
2D	1A	2d]	1a
2F	.	1c	.
2E	2G	.	1r
[2D	2A	2d	.
=24	=24	=24	=24
2D]	2B	1e	0r
2C	1A	.	.
1BB	.	2.d	.
.	2G	.	.
.	.	4B	.
=25	=25	=25	=25
1AA	2F	2c	1r
.	2E	2.e	.
1r	1F	.	1a
.	.	4d	.
.	.	[2d	.
=26	=26	=26	=26
1r	1E	2d]	2.g
.	.	2c	.
.	.	.	4a
1D	2r	1d	2b
.	[2F	.	[2a
=27	=27	=27	=27
1C	2F]	1e	2a]
.	2E	.	2g
2D	2F	2d	2f
[2E	2G	2B	2e
=28	=28	=28	=28
2E]	2.A	2c	1f
2D	.	2d	.
.	4B	.	.
2C	1c	2G	1e
2AA	.	[2A	.
=29	=29	=29	=29
1D	2.F	2A]	0f
.	.	4B	.
.	4G	4c	.
1D	1A	1d	.
=30	=30	=30	=30
0AAl	0Al	0cl	0el
=31||	=31||	=31||	=31||
*M3/1	*M3/1	*M3/1	*M3/1
*met(O|)	*met(O|)	*met(O|)	*met(O|)
!!section: Kyrie II
!!!OMD: Kyrie II
0.r	0.r	1d	0r
.	.	2e	.
.	.	2.f	.
.	.	.	1a
.	.	4e	.
.	.	[2d	.
=32	=32	=32	=32
1r	0.r	2d]	2b
.	.	2c	2cc
1D	.	2.d	2b
.	.	.	2a
.	.	4c	.
2E	.	2B	2g
[2F	.	2A	[2a
=33	=33	=33	=33
4F]	1A	2c	4a]
4E	.	.	4g
1D	.	2d	2.f
.	2B	1e	.
.	.	.	4e
2C	2c	.	1g
1D	2B	2.d	.
.	[2A	.	2f
.	.	4c	.
=34	=34	=34	=34
1E	4A]	2B	1g
.	4G	.	.
.	1G	2G	.
1D	.	0d	1a
.	2F#i	.	.
2r	1G	.	1b-i
[2G	.	.	.
=35	=35	=35	=35
2G]	1D	1d	1a
2F	.	.	.
2.G	1r	2r	0r
.	.	2d	.
4F	.	.	.
2E	1r	2c	.
2D	.	[2d	.
=36	=36	=36	=36
2F	0.r	4d]	0.r
.	.	4c	.
2G	.	2B	.
1A	.	2A	.
.	.	2c	.
2B-i	.	2d	.
2A	.	2e	.
=37	=37	=37	=37
4F	0.r	2f	0r
4G	.	.	.
4A	.	2.e	.
4F	.	.	.
4G	.	.	.
4F	.	4A	.
4E	.	1d	.
4D	.	.	.
1E	.	.	2r
.	.	2c#i	[2g
=38	=38	=38	=38
1D	1r	1d	2g]
.	.	.	2f
1GG	2r	1B	2.g
.	2d	.	.
.	.	.	4f
1r	2c	1r	2e
.	[2d	.	2d
=39	=39	=39	=39
0r	4d]	0.r	2f
.	4c	.	.
.	2B	.	2g
.	2A	.	1a
.	2c	.	.
2D	2d	.	2f
2C	[2e	.	[2g
=40	=40	=40	=40
2.D	4e]	0.r	2g]
.	4d	.	.
.	2.d	.	2f
4C	.	.	.
2BB	.	.	2d
.	4c	.	.
2AA	2.c	.	2.e
2C	.	.	.
.	4B	.	4d
2D	2A	.	2f
=41	=41	=41	=41
2E	2G	1r	2e
2F	2A	.	2d
1E	1B	1G	1e
1r	2r	2F	1d
.	[2d	[2G	.
=42	=42	=42	=42
0r	2d]	4G]	1g
.	.	4F	.
.	2c	2E	.
.	2.d	2D	2f
.	.	2F	2a
.	4c	.	.
2r	2B	2G	2g
[2D	2A	[2A	2f
=43	=43	=43	=43
2D]	2r	4A]	1e
.	.	4B	.
2C	2G	2c	.
2D	2F	2A	2r
2GG	2.G	2B	2d
1C	.	2G	2.e
.	4F	.	.
.	2E	2c	.
.	.	.	4f
=44	=44	=44	=44
2BB-i	2D	2d	2g
2AA	2F	2c	2a
2GG	2G	4B	2b
.	.	4A	.
2FF	2A	2.d	2a
2GG	2B-i	.	2g
.	.	4B	.
2AA	2A	2c	[2f
=45	=45	=45	=45
2BB	2D	2d	2f]
2C	2E	4c	1e
.	.	4B	.
2D	2F	2A	.
2GG	2G	2B	1d
1AA	1E	1A	.
.	.	.	2c#i
=46	=46	=46	=46
0.Dl	0.Dl	0.Al	0.dl
==	==	==	==
*-	*-	*-	*-
!!!system-decoration: [*]
!!!RDF**kern: i = editorial accidental
!!!RDF**kern: l = terminal long
!!!ENC: Max Blistain
!!!END: 2025/10/21
!!!EED: Benjamin Ory
!!!EEV: 2025/10/22
!!!YEC: Copyright 2025 Benjamin Ory, All Rights Reserved
!!!ONB: Translated from MusicXML on 2025/10/22